symbolic/24x24/apps/pegasus-fe.svg

<svg xmlns="http://www.w3.org/2000/svg" width="24" height="24" version="1.1">
 <path style="opacity:0.2" d="M 8.8896108,21.371561 C 5.5301479,20.846137 3.0257442,18.705288 2.2091747,15.66091 1.9171449,14.57213 1.9324799,12.885811 2.2452247,11.698482 3.276199,7.7842297 6.8262571,4.6209366 11.253444,3.6716672 c 1.13675,-0.2437398 3.384963,-0.2248599 4.431673,0.0372 3.329403,0.8336145 5.440791,2.8257832 6.149126,5.8019164 0.265015,1.1134644 0.20696,2.7976184 -0.13628,3.9535374 -0.518695,1.746789 -1.336514,3.098163 -2.708618,4.475737 -2.680219,2.690914 -6.511621,3.992673 -10.0997192,3.431488 z"/>
 <path style="fill:#4f4f4f" d="M 8.8896108,20.871563 C 5.5301479,20.346138 3.0257442,18.205289 2.2091747,15.160911 1.9171449,14.072132 1.9324799,12.385813 2.2452247,11.198484 3.276199,7.284231 6.8262571,4.1209378 11.253444,3.1716684 c 1.13675,-0.2437399 3.384963,-0.2248599 4.431673,0.0372 3.329403,0.8336145 5.440791,2.8257834 6.149126,5.8019166 0.265015,1.113464 0.20696,2.797618 -0.13628,3.953537 -0.518695,1.746789 -1.336514,3.098164 -2.708618,4.475738 -2.680219,2.690913 -6.511621,3.992672 -10.0997192,3.431488 z"/>
 <path style="opacity:0.2" d="M 18.154297,6.4824219 13.078125,7.7050781 10,7 V 8.4453125 L 6,9.4082031 V 11.460938 L 11.503906,10.1875 C 11.537162,9.5231737 12.084843,9.0012462 12.75,9 c 0.443804,3.559e-4 0.854143,0.2360035 1.078125,0.6191406 L 18.822266,8.3789062 C 18.672349,7.6686612 18.43633,7.044833 18.154297,6.4824219 Z m 0.832031,3.1679687 -2.021484,0.4667964 c -0.04626,0.3 -0.09925,0.591229 -0.173828,0.859375 -0.374709,1.34723 -1.032543,2.332798 -2.957032,3.173829 C 11.854997,15.015236 8.791621,15.637716 6,16.244141 v 2.046875 c 1.2371741,-0.271513 2.620124,-0.550913 4,-0.875 V 18.5 h 3 v -1.908203 c 0.567985,-0.186812 1.121117,-0.384903 1.634766,-0.609375 2.360028,-1.031367 3.585697,-2.686184 4.082031,-4.470703 0.126552,-0.455009 0.212048,-0.91695 0.273437,-1.38086 0.0064,-0.0479 0.01034,-0.0962 0.0098,-0.1445309 -0.0015,-0.1146764 -0.008,-0.2249016 -0.01367,-0.3359375 z M 10,11.855469 6,12.787109 v 2.095703 l 4,-0.933593 z"/>
 <path style="fill:#ff4b4b" d="M 18.154789,5.9824219 6,8.9082031 V 10.960938 L 11.503906,9.6875 C 11.537162,9.0231737 12.084843,8.5012462 12.75,8.5 c 0.443804,3.559e-4 0.854143,0.2360035 1.078125,0.6191406 L 18.822758,7.8789062 C 18.672841,7.1686612 18.436822,6.544833 18.154789,5.9824219 Z m 0.832031,3.1679687 -2.021484,0.4667969 c -0.04626,0.2999993 -0.09925,0.5912275 -0.173828,0.8593745 -0.374709,1.34723 -1.03341,2.332798 -2.957899,3.173829 C 11.854622,14.515236 8.791621,15.137716 6,15.744141 v 2.046875 c 2.6961695,-0.591706 6.077689,-1.191277 8.634391,-2.308594 2.360028,-1.031367 3.586564,-2.686184 4.082898,-4.470703 0.126552,-0.455009 0.212048,-0.91695 0.273437,-1.3808596 0.0064,-0.0479 0.01037,-0.096205 0.0098,-0.1445313 -0.0015,-0.1146764 -0.008,-0.2249016 -0.01367,-0.3359375 z M 10,11.355469 6,12.287109 v 2.095703 l 4,-0.933593 z"/>
 <rect style="fill:#ff4b4b" width="3" height="2" x="10" y="16"/>
 <path style="fill:#ff4b4b" d="m 10.000001,6.5000095 3.499998,0.7999995 -0.5,0.6999995 -1.719309,0.4999997 h -1.280689 z"/>
 <path style="opacity:0.1;fill:#ffffff" d="M 13.502928,3.0009882 C 12.667943,2.9939782 11.822281,3.0500166 11.253906,3.1718865 6.8267196,4.1211559 3.2760975,7.283996 2.2451231,11.198249 2.0640455,11.885706 1.9856064,12.739654 2.0058655,13.548833 2.0227969,12.897646 2.1011329,12.244904 2.2451231,11.698248 3.2760975,7.7839957 6.8267196,4.6211556 11.253906,3.6718862 c 1.13675,-0.2437398 3.384929,-0.2249505 4.431639,0.03711 3.329403,0.8336144 5.440099,2.8256207 6.148433,5.8017539 0.09514,0.3997232 0.147513,0.8741399 0.161133,1.3701169 0.01694,-0.673572 -0.03435,-1.3374444 -0.161133,-1.8701166 C 21.125644,6.0346167 19.014948,4.0426104 15.685545,3.208996 15.16219,3.0779661 14.337914,3.0079983 13.502928,3.0009882 Z"/>
 <path style="opacity:0.2;fill:#ffffff" d="M 18.154297 5.9824219 L 13.078125 7.2050781 L 10 6.5 L 10 7 L 13.078125 7.7050781 L 18.154297 6.4824219 C 18.370752 6.9140616 18.545328 7.3968154 18.689453 7.9121094 L 18.822266 7.8789062 C 18.672349 7.1686612 18.43633 6.544833 18.154297 5.9824219 z M 10 7.9453125 L 6 8.9082031 L 6 9.4082031 L 10 8.4453125 L 10 7.9453125 z M 18.986328 9.1503906 L 16.964844 9.6171875 C 16.918584 9.9171868 16.865594 10.208416 16.791016 10.476562 C 16.416307 11.823792 15.758473 12.80936 13.833984 13.650391 C 11.854997 14.515236 8.791621 15.137716 6 15.744141 L 6 16.244141 C 8.791621 15.637716 11.854997 15.015236 13.833984 14.150391 C 15.758473 13.30936 16.416307 12.323792 16.791016 10.976562 C 16.865594 10.708416 16.918584 10.417188 16.964844 10.117188 L 18.986328 9.6503906 C 18.987208 9.6438172 18.989364 9.6374336 18.990234 9.6308594 C 18.996634 9.5829594 19.00057 9.5346544 19 9.4863281 C 18.9985 9.3716517 18.991998 9.2614265 18.986328 9.1503906 z M 10 11.355469 L 6 12.287109 L 6 12.787109 L 10 11.855469 L 10 11.355469 z"/>
</svg>

<svg xmlns="http://www.w3.org/2000/svg" width="24" height="24"><path style="opacity:.2" d="M8.89 21.372c-3.36-.526-5.864-2.667-6.68-5.711-.293-1.089-.278-2.775.035-3.963 1.031-3.914 4.581-7.077 9.008-8.026 1.137-.244 3.385-.225 4.432.037 3.33.833 5.44 2.826 6.15 5.802.264 1.113.206 2.797-.137 3.953-.519 1.747-1.337 3.098-2.709 4.476-2.68 2.691-6.511 3.993-10.1 3.432z"/><path style="fill:#4f4f4f" d="M8.89 20.872c-3.36-.526-5.864-2.667-6.68-5.711-.293-1.089-.278-2.775.035-3.963 1.031-3.914 4.581-7.077 9.008-8.026 1.137-.244 3.385-.225 4.432.037 3.33.833 5.44 2.826 6.15 5.802.264 1.113.206 2.797-.137 3.953-.519 1.747-1.337 3.098-2.709 4.476-2.68 2.691-6.511 3.993-10.1 3.432z"/><path style="opacity:.2" d="m18.154 6.482-5.076 1.223L10 7v1.445l-4 .963v2.053l5.504-1.274A1.25 1.25 0 0 1 12.75 9c.444 0 .854.236 1.078.62l4.994-1.241a7.78 7.78 0 0 0-.668-1.897zm.832 3.168-2.021.467c-.046.3-.1.591-.174.86-.375 1.347-1.033 2.332-2.957 3.173-1.979.865-5.042 1.488-7.834 2.094v2.047c1.237-.271 2.62-.55 4-.875V18.5h3v-1.908a18.702 18.702 0 0 0 1.635-.61c2.36-1.03 3.585-2.686 4.082-4.47.126-.455.212-.917.273-1.381.007-.048.01-.096.01-.145-.001-.114-.008-.225-.014-.336zM10 11.855l-4 .932v2.096l4-.934z"/><path style="fill:#ff4b4b" d="M18.155 5.982 6 8.908v2.053l5.504-1.274A1.25 1.25 0 0 1 12.75 8.5c.444 0 .854.236 1.078.62l4.995-1.241a7.78 7.78 0 0 0-.668-1.897zm.832 3.168-2.022.467c-.046.3-.099.591-.173.86-.375 1.347-1.034 2.332-2.958 3.173-1.98.865-5.042 1.488-7.834 2.094v2.047c2.696-.592 6.078-1.191 8.634-2.309 2.36-1.03 3.587-2.686 4.083-4.47.127-.455.212-.917.274-1.381.006-.048.01-.096.01-.145-.002-.114-.008-.225-.014-.336zM10 11.355l-4 .932v2.096l4-.934z"/><path style="fill:#ff4b4b" d="M10 16h3v2h-3zM10 6.5l3.5.8-.5.7-1.72.5H10z"/><path style="opacity:.1;fill:#fff" d="M13.503 3.001c-.835-.007-1.68.049-2.25.17-4.426.95-7.977 4.113-9.008 8.027-.181.688-.26 1.542-.24 2.35a8.341 8.341 0 0 1 .24-1.85c1.031-3.914 4.582-7.077 9.009-8.026 1.137-.244 3.385-.225 4.432.037 3.329.834 5.44 2.826 6.148 5.802.095.4.147.874.161 1.37.017-.674-.034-1.338-.161-1.87-.708-2.976-2.82-4.968-6.148-5.802-.524-.131-1.348-.201-2.183-.208z"/><path style="opacity:.2;fill:#fff" d="m18.154 5.982-5.076 1.223L10 6.5V7l3.078.705 5.076-1.223c.217.432.391.915.535 1.43l.133-.033a7.78 7.78 0 0 0-.668-1.897zM10 7.945l-4 .963v.5l4-.963v-.5zm8.986 1.205-2.021.467c-.046.3-.1.591-.174.86-.375 1.347-1.033 2.332-2.957 3.173-1.979.865-5.042 1.488-7.834 2.094v.5c2.792-.606 5.855-1.229 7.834-2.094 1.924-.84 2.582-1.826 2.957-3.173.075-.269.128-.56.174-.86l2.021-.467.004-.02c.007-.047.01-.095.01-.144-.002-.114-.008-.225-.014-.336zM10 11.355l-4 .932v.5l4-.932v-.5z"/></svg>
